X: 1
T:Blue Dick
M:2/2
L:1/8
S:Armitt MS
K:A major
ed|c2A2ecec|f2B2B2ed|B2A2dBcA|G2E2E2dc|c2A2ecec|d2B2fdfd|cABc defg|a2A2A
2:||:e/2f/2g/2|a2A2agfe|a2c2e fg|a2A2agfe|d2B2f2 af|e2e2cAcA|f2f2dBdB|cA
FDE2e2|c2A2A2||
